grid-large.svg

<svg fill="currentColor" viewBox="0 0 24 24"><path d="M4 2h16a2 2 0 0 1 2 2v16a2 2 0 0 1-2 2H4c-1.08 0-2-.9-2-2V4a2 2 0 0 1 2-2m0 2v7h7V4zm0 16h7v-7H4zm16 0v-7h-7v7zm0-16h-7v7h7z"/></svg>

<svg  viewBox="0 0 24 24" fill="currentColor"><path  d="M4,2H20A2,2 0 0,1 22,4V20A2,2 0 0,1 20,22H4C2.92,22 2,21.1 2,20V4A2,2 0 0,1 4,2M4,4V11H11V4H4M4,20H11V13H4V20M20,20V13H13V20H20M20,4H13V11H20V4Z"/></svg>
